icons/new/svg/hand_detailed.svg

<svg xmlns="http://www.w3.org/2000/svg" viewBox="0 0 24 24" baseProfile="tiny"><path fill="none" d="M0-.004h24v24H0z"/><path d="M22.444 18.01s1.443-8.406-10.37-14.377c-1.24-.648-1.796.16-1.796.16s-.515-.66-2.37-1.184c-1.853-.524-3.162.387-2.957 1.55.001.003-1.794-1.328-2.965-.365-1.17.963.088 2.508.461 3.227.778 1.498 6.047 6.272 6.646 7.434.52 1.01.641 2.38-1.208 2.023-1.241-.24-5.068.616-3.53 3.9.303.649 2.278.607 3.107.322 1.458-.504 1.752-.4 2.696-.176.943.224 2.585 1.665 6.042 1.45 3.458-.214 6.199-3.13 6.244-3.965" fill="#934e44"/><path d="M22.447 17.165S23.854 8.967 12.33 3.142c-1.208-.632-1.751.157-1.751.157s-.503-.645-2.31-1.155c-1.809-.511-3.086.377-2.886 1.512.001.002-1.75-1.296-2.891-.357-1.142.94.085 2.446.449 3.148.759 1.461 5.898 6.118 6.483 7.251.507.985.625 2.32-1.179 1.973-1.21-.234-4.944.6-3.443 3.805.296.632 2.222.591 3.03.313 1.423-.491 1.71-.39 2.63-.171.92.218 2.521 1.623 5.894 1.414 3.372-.21 6.046-3.053 6.09-3.867" fill="#e2b9ab"/><path d="M259.198 70.429c-.009-.073.433-2.438-1.007-5.569-.735-1.597-3.091-3.853-3.186-3.904-.81-.934-4.291-3.055-4.958-3.196-.209-.027-.256-.038-.405-.018-.482.065-.642.353-.642.353s-.435-.589-2-1.031c-1.531-.442-2.551.257-2.458 1.243-.009.117-1.45-1.015-2.438-.203-.988.813.064 2.013.379 2.62.657 1.265 5.13 5.295 5.636 6.276.44.852.422 2.14-1.139 1.839-1.048-.202-4.385.504-3.086 3.277.256.547 2.029.624 2.729.383 1.231-.425 1.242-.419 2.039-.23.796.189 2.419 1.424 5.338 1.243 1.168-.073 2.475-.571 3.429-1.321 1.696-1.159 1.773-1.723 1.769-1.762z" fill="url(#_Linear3)" transform="matrix(1.15535 0 0 1.15547 -277.102 -63.718)"/><path d="M241.79 58.452c.089-.162.314-.348.314-.348.809-.664 2.276-.11 2.276-.11s2.073.382 5.596 5.218c1.411 3.154.199 4.681-2.626 1.14.095.122-2.933-3.219-4.539-4.348-.61-.44-.994-.668-1.177-.884 0 0 .023-.415.156-.668z" fill="url(#_Linear4)" transform="matrix(1.15535 0 0 1.15547 -273.775 -64.652)"/><path d="M242.635 60.143c.762.742 3.282 3.95 3.187 3.828 2.825 3.541 4.845 3.116 3.433-.038-2.846-3.603-6.403-5.113-6.745-5.114-.243-.019-.519-.02-.782.197-.057.046.145.576.907 1.127z" fill="url(#_Linear5)" transform="matrix(1.15535 0 0 1.15547 -268.47 -64.96)"/><path d="M242.483 60.724c.184.355 4.81 5.082 4.715 4.96.583-.443 2.842-1.385 2.861-1.997-2.971-3.668-5.679-5.38-5.679-5.38s-1.288-1.015-2.276-.203c-.988.813.064 2.013.379 2.62z" fill="url(#_Linear6)" transform="matrix(1.15535 0 0 1.15547 -277.102 -63.718)"/><path d="M244.417 55.7c2.37 1.579 7.519 8.629 6.783 9.943-.302.801-1.399.757-1.984.349l.496-.018c1.562.302 1.46-.855 1.021-1.707-.506-.981-4.955-5.01-5.611-6.276-.265-.511-1.06-1.516-.705-2.291z" fill="url(#_Radial7)" transform="matrix(1.15535 0 0 1.15547 -280.26 -60.56)"/><path d="M244.417 55.7c2.37 1.579 7.519 8.629 6.783 9.943-.302.801-1.399.757-1.984.349l.496-.018c1.562.302 1.46-.855 1.021-1.707-.506-.981-4.955-5.01-5.611-6.276-.265-.511-1.06-1.516-.705-2.291z" fill="url(#_Radial8)" transform="matrix(1.15535 0 0 1.15547 -280.26 -60.56)"/><path d="M244.507 58.285c-.102-1.008.98-1.712 2.493-1.285 1.565.442 2 1 2 1l.038-.029c.774 1.273 2.859 4.634 1.196 5.629-.022.009-1.815-1.817-2.103-2.132-.31-.339-.696-.791-1.098-1.143-.311-.274-.629-.559-.955-.819-.523-.419-1.458-1.045-1.569-1.204l-.002-.017z" fill="url(#_Radial9)" transform="matrix(1.15535 0 0 1.15547 -277.102 -63.718)"/><path d="M244.507 58.285c-.102-1.008.98-1.712 2.493-1.285 1.565.442 2 1 2 1l.038-.029c.774 1.273 2.859 4.634 1.196 5.629-.022.009-1.815-1.817-2.103-2.132-.31-.339-.696-.791-1.098-1.143-.311-.274-.629-.559-.955-.819-.523-.419-1.458-1.045-1.569-1.204l-.002-.017z" fill="url(#_Radial10)" transform="matrix(1.15535 0 0 1.15547 -277.102 -63.718)"/><path d="M248.931 57.944L249 58s.47-.683 1.516-.136c.295.15 2.142 3.074 2.594 4.628-.055.079-.05.022-.077.068-.021.036-.932-1.197-1.314-1.67-.345-.427-.738-.848-1.098-1.259l-1.708-1.644.018-.043z" fill="url(#_Radial11)" transform="matrix(1.15535 0 0 1.15547 -277.102 -63.718)"/><path d="M248.931 57.944L249 58s.47-.683 1.516-.136c.295.15 2.142 3.074 2.594 4.628-.055.079-.05.022-.077.068-.021.036-.932-1.197-1.314-1.67-.345-.427-.738-.848-1.098-1.259l-1.708-1.644.018-.043z" fill="url(#_Radial12)" transform="matrix(1.15535 0 0 1.15547 -277.102 -63.718)"/><defs><linearGradient id="_Linear3" x2="1" gradientUnits="userSpaceOnUse" gradientTransform="scale(-9.6534) rotate(47.455 -4.963 -33.951)"><stop offset="0" stop-color="#d59586"/><stop offset="1" stop-color="#d59586" stop-opacity="0"/></linearGradient><linearGradient id="_Linear4" x2="1" gradientUnits="userSpaceOnUse" gradientTransform="scale(8.59257) rotate(51.394 7.299 32.885)"><stop offset="0" stop-color="#fefbe5" stop-opacity=".406"/><stop offset="1" stop-color="#fefbe5" stop-opacity="0"/></linearGradient><linearGradient id="_Linear5" x2="1" gradientUnits="userSpaceOnUse" gradientTransform="rotate(57.027 69.51 253.553) scale(6.03522)"><stop offset="0" stop-color="#fefbe5" stop-opacity=".406"/><stop offset="1" stop-color="#fefbe5" stop-opacity="0"/></linearGradient><linearGradient id="_Linear6" x2="1" gradientUnits="userSpaceOnUse" gradientTransform="scale(8.59257) rotate(51.394 7.299 32.885)"><stop offset="0" stop-color="#fefbe5" stop-opacity=".406"/><stop offset="1" stop-color="#fefbe5" stop-opacity="0"/></linearGradient><radialGradient r="1" id="_Radial7" cx="0" gradientUnits="userSpaceOnUse" gradientTransform="matrix(.41087 -1.74372 8.0057 9.6933 247.074 61.147)" cy="0"><stop offset="0" stop-color="#bb6158"/><stop offset="1" stop-color="#bb6158" stop-opacity="0"/></radialGradient><radialGradient r="1" id="_Radial8" cx="0" gradientUnits="userSpaceOnUse" gradientTransform="matrix(1.03251 -1.73367 3.33009 5.59151 245.781 60.84)" cy="0"><stop offset="0" stop-color="#fff" stop-opacity="0"/><stop offset=".5" stop-color="#fff" stop-opacity="0"/><stop offset="1" stop-color="#fff" stop-opacity="0"/></radialGradient><radialGradient r="1" id="_Radial9" cx="0" gradientUnits="userSpaceOnUse" gradientTransform="matrix(.9641 -1.10352 3.10944 3.55911 245.858 60.139)" cy="0"><stop offset="0" stop-color="#fff" stop-opacity="0"/><stop offset=".5" stop-color="#fff" stop-opacity="0"/><stop offset="1" stop-color="#fff" stop-opacity="0"/></radialGradient><radialGradient r="1" id="_Radial10" cx="0" gradientUnits="userSpaceOnUse" gradientTransform="matrix(.86165 -.90536 4.01043 3.74273 246.721 60.696)" cy="0"><stop offset="0" stop-color="#bb6158"/><stop offset="1" stop-color="#bb6158" stop-opacity="0"/></radialGradient><radialGradient r="1" id="_Radial11" cx="0" gradientUnits="userSpaceOnUse" gradientTransform="matrix(.6973 -.80529 2.24898 2.59724 249.895 60.035)" cy="0"><stop offset="0" stop-color="#fff" stop-opacity="0"/><stop offset=".5" stop-color="#fff" stop-opacity="0"/><stop offset="1" stop-color="#fff" stop-opacity="0"/></radialGradient><radialGradient r="1" id="_Radial12" cx="0" gradientUnits="userSpaceOnUse" gradientTransform="matrix(.8222 -.18918 4.31576 4.59807 250.686 60.012)" cy="0"><stop offset="0" stop-color="#bb6158"/><stop offset="1" stop-color="#bb6158" stop-opacity="0"/></radialGradient></defs></svg>

<?xml version="1.0"?>
<!-- Converted with SVG Converter - Version 0.9.6 (Compiled Fri Dec  1 22:15:06 2017) - Copyright (C) 2011 Nokia -->
<svg xmlns="http://www.w3.org/2000/svg" viewBox="0 0 24 24" width="100%" xml:space="preserve" version="1.1" xmlns:xlink="http://www.w3.org/1999/xlink" height="100%" baseProfile="tiny">
 <g transform="matrix(1,0,0,1,-272,-94)">
  <g transform="matrix(1,0,0,1,34,40.9959)">
   <g id="detailed">
    <rect style="fill:none;" width="24" id="hand_detailed" y="53" x="238" height="24"/>
    <g>
     <g transform="matrix(1.18451,0,0,1.18464,-46.6652,-11.9113)">
      <path style="fill:rgb(147,78,68);" d="M259.271,70C259.271,70 260.489,62.905 250.516,57.864C249.47,57.317 249,58 249,58C249,58 248.565,57.442 247,57C245.435,56.558 244.33,57.327 244.503,58.309C244.504,58.311 242.988,57.187 242,58C241.012,58.813 242.074,60.117 242.389,60.724C243.046,61.989 247.494,66.019 248,67C248.439,67.852 248.541,69.008 246.98,68.707C245.932,68.505 242.701,69.227 244,72C244.256,72.547 245.923,72.512 246.623,72.271C247.854,71.846 248.102,71.934 248.899,72.123C249.695,72.312 251.081,73.528 254,73.347C256.919,73.166 259.233,70.705 259.271,70"/>
     </g>
     <g transform="matrix(1.15535,0,0,1.15547,-39.1022,-10.7141)">
      <path style="fill:rgb(226,185,171);" d="M259.271,70C259.271,70 260.489,62.905 250.516,57.864C249.47,57.317 249,58 249,58C249,58 248.565,57.442 247,57C245.435,56.558 244.33,57.327 244.503,58.309C244.504,58.311 242.988,57.187 242,58C241.012,58.813 242.074,60.117 242.389,60.724C243.046,61.989 247.494,66.019 248,67C248.439,67.852 248.541,69.008 246.98,68.707C245.932,68.505 242.701,69.227 244,72C244.256,72.547 245.923,72.512 246.623,72.271C247.854,71.846 248.102,71.934 248.899,72.123C249.695,72.312 251.081,73.528 254,73.347C256.919,73.166 259.233,70.705 259.271,70"/>
      <g>
       <path style="fill:url(#_Linear3);" d="M259.198,70.429C259.189,70.356 259.631,67.991 258.191,64.86C257.456,63.263 255.1,61.007 255.005,60.956C254.195,60.022 250.714,57.901 250.047,57.76C249.838,57.733 249.791,57.722 249.642,57.742C249.16,57.807 249,58.095 249,58.095C249,58.095 248.565,57.506 247,57.064C245.469,56.622 244.449,57.321 244.542,58.307C244.533,58.424 243.092,57.292 242.104,58.104C241.116,58.917 242.168,60.117 242.483,60.724C243.14,61.989 247.613,66.019 248.119,67C248.559,67.852 248.541,69.14 246.98,68.839C245.932,68.637 242.595,69.343 243.894,72.116C244.15,72.663 245.923,72.74 246.623,72.499C247.854,72.074 247.865,72.08 248.662,72.269C249.458,72.458 251.081,73.693 254,73.512C255.168,73.439 256.475,72.941 257.429,72.191C259.125,71.032 259.202,70.468 259.198,70.429Z"/>
       <g transform="matrix(1,0,0,1,2.88024,-0.808437)">
        <path style="fill:url(#_Linear4);" d="M241.79,58.452C241.879,58.29 242.104,58.104 242.104,58.104C242.913,57.44 244.38,57.994 244.38,57.994C244.38,57.994 246.453,58.376 249.976,63.212C251.387,66.366 250.175,67.893 247.35,64.352C247.445,64.474 244.417,61.133 242.811,60.004C242.201,59.564 241.817,59.336 241.634,59.12C241.634,59.12 241.657,58.705 241.79,58.452Z"/>
       </g>
       <g transform="matrix(1,0,0,1,7.47075,-1.07418)">
        <path style="fill:url(#_Linear5);" d="M242.635,60.143C243.397,60.885 245.917,64.093 245.822,63.971C248.647,67.512 250.667,67.087 249.255,63.933C246.409,60.33 242.852,58.82 242.51,58.819C242.267,58.8 241.991,58.799 241.728,59.016C241.671,59.062 241.873,59.592 242.635,60.143Z"/>
       </g>
       <path style="fill:url(#_Linear6);" d="M242.483,60.724C242.667,61.079 247.293,65.806 247.198,65.684C247.781,65.241 250.04,64.299 250.059,63.687C247.088,60.019 244.38,58.307 244.38,58.307C244.38,58.307 243.092,57.292 242.104,58.104C241.116,58.917 242.168,60.117 242.483,60.724Z"/>
       <g transform="matrix(1,0,0,1,-2.73263,2.73263)">
        <path style="fill:url(#_Radial7);" d="M244.417,55.7C246.787,57.279 251.936,64.329 251.2,65.643C250.898,66.444 249.801,66.4 249.216,65.992L249.712,65.974C251.274,66.276 251.172,65.119 250.733,64.267C250.227,63.286 245.778,59.257 245.122,57.991C244.857,57.48 244.062,56.475 244.417,55.7Z"/>
       </g>
       <g transform="matrix(1,0,0,1,-2.73263,2.73263)">
        <path style="fill:url(#_Radial8);" d="M244.417,55.7C246.787,57.279 251.936,64.329 251.2,65.643C250.898,66.444 249.801,66.4 249.216,65.992L249.712,65.974C251.274,66.276 251.172,65.119 250.733,64.267C250.227,63.286 245.778,59.257 245.122,57.991C244.857,57.48 244.062,56.475 244.417,55.7Z"/>
       </g>
       <path style="fill:url(#_Radial9);" d="M244.507,58.285C244.405,57.277 245.487,56.573 247,57C248.565,57.442 249,58 249,58L249.038,57.971C249.812,59.244 251.897,62.605 250.234,63.6C250.212,63.609 248.419,61.783 248.131,61.468C247.821,61.129 247.435,60.677 247.033,60.325C246.722,60.051 246.404,59.766 246.078,59.506C245.555,59.087 244.62,58.461 244.509,58.302L244.507,58.285Z"/>
       <path style="fill:url(#_Radial10);" d="M244.507,58.285C244.405,57.277 245.487,56.573 247,57C248.565,57.442 249,58 249,58L249.038,57.971C249.812,59.244 251.897,62.605 250.234,63.6C250.212,63.609 248.419,61.783 248.131,61.468C247.821,61.129 247.435,60.677 247.033,60.325C246.722,60.051 246.404,59.766 246.078,59.506C245.555,59.087 244.62,58.461 244.509,58.302L244.507,58.285Z"/>
       <path style="fill:url(#_Radial11);" d="M248.931,57.944L249,58C249,58 249.47,57.317 250.516,57.864C250.811,58.014 252.658,60.938 253.11,62.492C253.055,62.571 253.06,62.514 253.033,62.56C253.012,62.596 252.101,61.363 251.719,60.89C251.374,60.463 250.981,60.042 250.621,59.631L248.913,57.987L248.931,57.944Z"/>
       <path style="fill:url(#_Radial12);" d="M248.931,57.944L249,58C249,58 249.47,57.317 250.516,57.864C250.811,58.014 252.658,60.938 253.11,62.492C253.055,62.571 253.06,62.514 253.033,62.56C253.012,62.596 252.101,61.363 251.719,60.89C251.374,60.463 250.981,60.042 250.621,59.631L248.913,57.987L248.931,57.944Z"/>
      </g>
     </g>
    </g>
   </g>
  </g>
 </g>
 <defs>
  <linearGradient x1="0" id="_Linear3" x2="1" gradientUnits="userSpaceOnUse" y2="0" y1="0" gradientTransform="matrix(-6.5273,-7.11213,7.11213,-6.5273,256.981,70.8336)">
   <stop style="stop-color:rgb(213,149,134);stop-opacity:1" offset="0.0"/>
   <stop style="stop-color:rgb(213,149,134);stop-opacity:0" offset="1.0"/>
  </linearGradient>
  <linearGradient x1="0" id="_Linear4" x2="1" gradientUnits="userSpaceOnUse" y2="0" y1="0" gradientTransform="matrix(5.36145,6.7147,-6.7147,5.36145,244.393,57.2457)">
   <stop style="stop-color:rgb(254,251,229);stop-opacity:0.40578" offset="0.0"/>
   <stop style="stop-color:rgb(254,251,229);stop-opacity:0" offset="1.0"/>
  </linearGradient>
  <linearGradient x1="0" id="_Linear5" x2="1" gradientUnits="userSpaceOnUse" y2="0" y1="0" gradientTransform="matrix(3.2846,5.06313,-5.06313,3.2846,244.393,57.2457)">
   <stop style="stop-color:rgb(254,251,229);stop-opacity:0.40578" offset="0.0"/>
   <stop style="stop-color:rgb(254,251,229);stop-opacity:0" offset="1.0"/>
  </linearGradient>
  <linearGradient x1="0" id="_Linear6" x2="1" gradientUnits="userSpaceOnUse" y2="0" y1="0" gradientTransform="matrix(5.36145,6.7147,-6.7147,5.36145,244.393,57.2457)">
   <stop style="stop-color:rgb(254,251,229);stop-opacity:0.40578" offset="0.0"/>
   <stop style="stop-color:rgb(254,251,229);stop-opacity:0" offset="1.0"/>
  </linearGradient>
  <radialGradient r="1" id="_Radial7" cx="0" gradientUnits="userSpaceOnUse" gradientTransform="matrix(0.410869,-1.74372,8.0057,9.6933,247.074,61.1471)" cy="0">
   <stop style="stop-color:rgb(187,97,88);stop-opacity:1" offset="0.0"/>
   <stop style="stop-color:rgb(187,97,88);stop-opacity:0" offset="1.0"/>
  </radialGradient>
  <radialGradient r="1" id="_Radial8" cx="0" gradientUnits="userSpaceOnUse" gradientTransform="matrix(1.03251,-1.73367,3.33009,5.59151,245.781,60.8407)" cy="0">
   <stop style="stop-color:white;stop-opacity:0" offset="0.0"/>
   <stop style="stop-color:white;stop-opacity:0" offset="0.5"/>
   <stop style="stop-color:white;stop-opacity:0" offset="1.0"/>
  </radialGradient>
  <radialGradient r="1" id="_Radial9" cx="0" gradientUnits="userSpaceOnUse" gradientTransform="matrix(0.964097,-1.10352,3.10944,3.55911,245.858,60.1385)" cy="0">
   <stop style="stop-color:white;stop-opacity:0" offset="0.0"/>
   <stop style="stop-color:white;stop-opacity:0" offset="0.5"/>
   <stop style="stop-color:white;stop-opacity:0" offset="1.0"/>
  </radialGradient>
  <radialGradient r="1" id="_Radial10" cx="0" gradientUnits="userSpaceOnUse" gradientTransform="matrix(0.861646,-0.905365,4.01043,3.74273,246.721,60.6959)" cy="0">
   <stop style="stop-color:rgb(187,97,88);stop-opacity:1" offset="0.0"/>
   <stop style="stop-color:rgb(187,97,88);stop-opacity:0" offset="1.0"/>
  </radialGradient>
  <radialGradient r="1" id="_Radial11" cx="0" gradientUnits="userSpaceOnUse" gradientTransform="matrix(0.697308,-0.805287,2.24898,2.59724,249.895,60.0348)" cy="0">
   <stop style="stop-color:white;stop-opacity:0" offset="0.0"/>
   <stop style="stop-color:white;stop-opacity:0" offset="0.5"/>
   <stop style="stop-color:white;stop-opacity:0" offset="1.0"/>
  </radialGradient>
  <radialGradient r="1" id="_Radial12" cx="0" gradientUnits="userSpaceOnUse" gradientTransform="matrix(0.822198,-0.189178,4.31576,4.59807,250.686,60.0116)" cy="0">
   <stop style="stop-color:rgb(187,97,88);stop-opacity:1" offset="0.0"/>
   <stop style="stop-color:rgb(187,97,88);stop-opacity:0" offset="1.0"/>
  </radialGradient>
 </defs>
</svg>
